tracks/csharp.svg

<svg width="96" height="96" viewBox="0 0 96 96" fill="none" xmlns="http://www.w3.org/2000/svg">
<path d="M44 2.30935C46.4752 0.880283 49.5248 0.880284 52 2.30935L85.5692 21.6905C88.0444 23.1196 89.5692 25.7606 89.5692 28.6187V67.3811C89.5692 70.2393 88.0444 72.8803 85.5692 74.3093L52 93.6905C49.5248 95.1196 46.4752 95.1196 44 93.6905L10.4308 74.3093C7.95558 72.8803 6.43079 70.2393 6.43079 67.3811V28.6187C6.43079 25.7606 7.95558 23.1196 10.4308 21.6905L44 2.30935Z" fill="white"/>
<path fill-rule="evenodd" clip-rule="evenodd" d="M84.1907 22.9024L51.5701 4.06896C49.3322 2.77689 46.575 2.77689 44.337 4.06896L11.7165 22.9024C9.47853 24.1945 8.09991 26.5824 8.09991 29.1665V66.8335C8.09991 69.4176 9.47853 71.8055 11.7165 73.0975L44.337 91.931C46.575 93.2231 49.3322 93.2231 51.5701 91.931L84.1907 73.0975C86.4286 71.8055 87.8072 69.4176 87.8072 66.8335V29.1665C87.8072 26.5824 86.4286 24.1945 84.1907 22.9024ZM53.1201 1.38436C49.923 -0.461454 45.9841 -0.461455 42.7871 1.38436L10.1665 20.2178C6.96946 22.0637 5 25.4749 5 29.1665V66.8335C5 70.5251 6.96946 73.9363 10.1665 75.7821L42.7871 94.6156C45.9841 96.4614 49.923 96.4614 53.1201 94.6156L85.7406 75.7821C88.9377 73.9363 90.9071 70.5251 90.9071 66.8335V29.1665C90.9071 25.4749 88.9377 22.0637 85.7406 20.2178L53.1201 1.38436Z" fill="#341394"/>
<path d="M24.0005 47.9785C23.8573 24.526 55.7343 14.1704 69.481 35.9619L58.9328 41.9767C52.5651 31.5982 36.7545 35.3092 36.187 47.9783C36.3574 59.6546 51.8972 65.0785 58.9334 53.9793L69.4817 59.994C57.367 80.7184 24.6115 73.2621 24.0005 47.9785Z" fill="#341394"/>
<path d="M64.2055 41.1686H66.2144L64.8418 54.2339H62.7951L64.2055 41.1686Z" fill="#341394"/>
<path d="M68.5087 41.1686H70.5176L69.145 54.2339H67.0983L68.5087 41.1686Z" fill="#341394"/>
<path d="M72 44.2714H61.9556V46.1832H72V44.2714Z" fill="#341394"/>
<path d="M71.4375 48.9286H61.3931V50.8404H71.4375V48.9286Z" fill="#341394"/>
</svg>

<svg width="96" height="96" fill="none" xmlns="http://www.w3.org/2000/svg">
  <path d="M44 2.3093a8 8 0 018 0l33.5692 19.3812a8 8 0 014 6.9282v38.7624a7.9998 7.9998 0 01-4 6.9282L52 93.6905a7.9998 7.9998 0 01-8 0L10.4308 74.3093a7.9998 7.9998 0 01-4-6.9282V28.6187a8 8 0 014-6.9282L44 2.3093z" fill="#fff"/>
  <path fill-rule="evenodd" clip-rule="evenodd" d="M84.1907 22.9024L51.5701 4.069a7.233 7.233 0 00-7.2331 0L11.7165 22.9024a7.2332 7.2332 0 00-3.6166 6.2641v37.667a7.233 7.233 0 003.6166 6.264L44.337 91.931a7.233 7.233 0 007.2331 0l32.6206-18.8335a7.233 7.233 0 003.6165-6.264v-37.667a7.2333 7.2333 0 00-3.6165-6.2641zM53.1201 1.3844a10.333 10.333 0 00-10.333 0L10.1665 20.2178A10.3332 10.3332 0 005 29.1665v37.667a10.333 10.333 0 005.1665 8.9486l32.6206 18.8335a10.333 10.333 0 0010.333 0l32.6205-18.8335a10.3328 10.3328 0 005.1665-8.9486v-37.667a10.3331 10.3331 0 00-5.1665-8.9487L53.1201 1.3844z" fill="#341394"/>
  <path d="M24.0005 47.9785C23.8573 24.526 55.7343 14.1704 69.481 35.9619l-10.5482 6.0148c-6.3677-10.3785-22.1783-6.6675-22.7458 6.0016.1704 11.6763 15.7102 17.1002 22.7464 6.001l10.5483 6.0147C57.367 80.7184 24.6115 73.2621 24.0005 47.9785z" fill="#341394"/>
  <path d="M64.2055 41.1686h2.0089l-1.3726 13.0653h-2.0467l1.4104-13.0653zM68.5087 41.1686h2.0089L69.145 54.2339h-2.0467l1.4104-13.0653z" fill="#341394"/>
  <path d="M72 44.2714H61.9556v1.9118H72v-1.9118zM71.4375 48.9286H61.3931v1.9118h10.0444v-1.9118z" fill="#341394"/>
</svg>
